!!!COM: Music21
!!!OTL: Pasacorredoiras
!!!OMV: pezas_pasacorredoiras_pasacorredoiras-1_pasacorredoiras-partitura.musicxml
**kern
*I"Bagpipes
*I'Bag
*clefG^2
*k[]
*M2/4
=1
!LO:TX:a:t=Allegretto
4cc
4dd
=
8eeL
8ggJ
8eeL
8ccJ
=
8ddL
8ffJ
8ddL
8bJ
=
8ccL
8ddJ
8eeL
8ggJ
=
4cc
4dd
=
8eeL
8ggJ
8eeL
8ccJ
=
8ffL
8ddJ
8bL
8ddJ
=
4.cc
16eeLL
16ggJJ
=||
*M2/4
!LO:TX:a:t=Allegretto
4cc
4dd
=
8eeL
8ggJ
8eeL
8ccJ
!!linebreak:original
=
8ddL
8ffJ
8ddL
8bJ
=
8ccL
8ddJ
8eeL
8ggJ
=
4cc
4dd
=
8eeL
8ggJ
8eeL
8ccJ
=
8ddL
8ffJ
8ddL
8bJ
=
4.cc
16eeLL
16ggJJ
=||
8cccL
8ggJ
8eeL
8ccJ
=
8cccL
8ggJ
8eeL
8ccJ
=
8cccL
8ggJ
8eeL
8ccJ
=
4.dd
8ee
=
8ffL
8ddJ
8bL
8ddJ
!!linebreak:original
=
8ffL
8ddJ
8bL
8ddJ
=
8ggL
8ffJ
8ddL
8ggJ
=
4ee
8ccL
16eeL
16ggJJ
=||
8cccL
8ggJ
8eeL
8ccJ
=
8cccL
8ggJ
8eeL
8ccJ
=
8cccL
8ggJ
8eeL
8ccJ
=
4.dd
8ee
=
8ffL
8ddJ
8bL
8ddJ
=
8ffL
8ddJ
8bL
8ddJ
=
8ggL
8ffJ
8eeL
8ddJ
=
2cc
!!linebreak:original
=||
8ffL
8ddJ
8bL
8ddJ
=
8ffL
8ccJ
8bL
8ccJ
=
8ddL
8eeJ
8ffL
8ggJ
=
4.cc
8gg
=
8ccc
8r
4r
==
*-
